svg/Pictogram/pictograms-aem-0054-radio_frequency_electromagnetic_radiation_hazard.svg

<?xml version="1.0" encoding="ISO-8859-1" standalone="yes"?>
<svg height="304.014" width="304.015">
  <metadata>
    <rdf:RDF xmlns:cc="http://web.resource.org/cc/" xmlns:dc="http://purl.org/dc/elements/1.1/" xmlns:rdf="http://www.w3.org/1999/02/22-rdf-syntax-ns#">
      <cc:Work rdf:about="">
        <dc:title></dc:title>
        <dc:description></dc:description>
        <dc:subject>
          <rdf:Bag>
            <rdf:li></rdf:li>
          </rdf:Bag>
        </dc:subject>
        <dc:publisher>
          <cc:Agent rdf:about="http://www.unece.org/trans/danger/publi/ghs/pictograms.html">
            <dc:title>Source: UNECE GHS of Classification and Labeling of Chemicals, Source: AEM Pictorial Database, Source: AEM Pictorial Database, Source: AEM Pictorial Database, Source: AEM Pictorial Database</dc:title>
          </cc:Agent>
        </dc:publisher>
        <dc:creator>
          <cc:Agent>
            <dc:title></dc:title>
          </cc:Agent>
        </dc:creator>
        <dc:rights>
          <cc:Agent>
            <dc:title></dc:title>
          </cc:Agent>
        </dc:rights>
        <dc:date></dc:date>
        <dc:format>image/svg+xml</dc:format>
        <dc:type rdf:resource="http://purl.org/dc/dcmitype/StillImage"/>
        <cc:license rdf:resource="http://en.wikipedia.org/wiki/Public_domain"/>
        <dc:language>en</dc:language>
      </cc:Work>
    </rdf:RDF>
  </metadata>
  <defs><marker id="ArrowEnd" markerHeight="3" markerUnits="strokeWidth" markerWidth="4" orient="auto" refX="0" refY="5" viewBox="0 0 10 10"><path d="M 0 0 L 10 5 L 0 10 z"/></marker><marker id="ArrowStart" markerHeight="3" markerUnits="strokeWidth" markerWidth="4" orient="auto" refX="10" refY="5" viewBox="0 0 10 10"><path d="M 10 0 L 0 5 L 10 10 z"/></marker> </defs>
  <g id="g2958" transform="matrix(1.3532768,0,0,1.3532781,-53.207834,-52.192858)">
    <path d="M 152.007 147.038L 154.019 146.838L 155.886 146.245L 157.558 145.307L 159.058 144.088L 160.218 142.643L 161.155 141.002L 161.722 139.131L 161.948 137.12L 161.722 135.112L 161.155 133.213L 160.218 131.569L 159.058 130.069L 157.558 128.909L 155.886 127.971L 154.019 127.409L 152.007 127.178L 149.995 127.409L 148.128 127.971L 146.456 128.909L 145.038 130.069L 143.792 131.569L 142.858 133.213L 142.292 135.112L 142.093 137.12L 142.292 139.131L 142.858 141.002L 143.792 142.643L 145.038 144.088L 146.456 145.307L 148.128 146.245L 149.995 146.838L 152.007 147.038" style="stroke:none; fill-rule:evenodd; fill:#000000"/>
    <path d="M 144.671 164.03L 161.636 164.03L 178.632 224.952L 126.265 224.952L 144.671 164.03" style="stroke:none; fill-rule:evenodd; fill:#000000"/>
    <path d="M 186.022 137.124L 185.878 135.393L 185.823 133.666L 185.597 131.94L 185.312 130.268L 184.886 128.682L 184.519 127.124L 183.952 125.456L 183.3 123.87L 182.647 122.424L 181.94 120.924L 181.062 119.479L 180.214 118.12L 179.194 116.76L 178.202 115.456L 177.097 114.241L 175.964 113.022L 171.944 117.045L 172.933 117.979L 173.726 119.053L 174.745 120.217L 175.456 121.291L 176.163 122.51L 176.901 123.67L 177.464 124.889L 178.116 126.194L 178.628 127.467L 179.05 128.686L 179.421 129.987L 179.702 131.432L 179.987 132.791L 180.214 134.237L 180.269 135.682L 180.269 137.124L 186.019 137.124" style="stroke:none; fill-rule:evenodd; fill:#000000"/>
    <path d="M 175.968 161.139L 177.046 159.92L 178.12 158.706L 179.14 157.459L 180.132 156.1L 181.065 154.741L 181.858 153.295L 182.593 151.85L 183.358 150.264L 183.866 148.706L 184.378 147.178L 184.89 145.592L 185.315 143.948L 185.597 142.303L 185.823 140.577L 185.882 138.85L 186.022 137.12L 180.272 137.12L 180.272 138.538L 180.218 139.983L 179.987 141.424L 179.706 142.788L 179.425 144.174L 179.054 145.448L 178.546 146.834L 178.034 148.112L 177.554 149.268L 176.819 150.573L 176.167 151.706L 175.401 152.924L 174.663 154.03L 173.815 155.108L 172.882 156.182L 171.944 157.116L 175.968 161.135" style="stroke:none; fill-rule:evenodd; fill:#000000"/>
    <path d="M 117.991 137.124L 118.136 138.909L 118.276 140.776L 118.476 142.588L 118.843 144.374L 119.269 146.045L 119.776 147.772L 120.343 149.498L 121.077 151.139L 121.87 152.725L 122.722 154.17L 123.601 155.588L 124.593 157.034L 125.612 158.475L 126.831 159.834L 127.991 161.053L 129.21 162.213L 133.089 158.049L 132.015 157.03L 130.991 155.956L 130.058 154.877L 129.21 153.717L 128.331 152.584L 127.624 151.284L 126.913 149.979L 126.265 148.706L 125.667 147.319L 125.101 146.041L 124.733 144.596L 124.308 143.069L 124.112 141.709L 123.886 140.209L 123.741 138.624L 123.741 137.12L 117.991 137.12" style="stroke:none; fill-rule:evenodd; fill:#000000"/>
    <path d="M 128.046 113.022L 126.913 114.241L 125.835 115.456L 124.815 116.76L 123.796 118.12L 122.948 119.479L 122.065 120.92L 121.362 122.424L 120.71 123.866L 120.058 125.452L 119.491 127.124L 119.124 128.682L 118.698 130.268L 118.417 131.94L 118.19 133.666L 118.132 135.393L 117.991 137.12L 123.741 137.12L 123.741 135.678L 123.796 134.233L 124.022 132.791L 124.308 131.428L 124.589 129.987L 124.956 128.682L 125.382 127.463L 125.894 126.19L 126.546 124.885L 127.108 123.666L 127.847 122.506L 128.554 121.288L 129.261 120.213L 130.28 119.053L 131.073 117.975L 132.065 117.041L 128.046 113.018" style="stroke:none; fill-rule:evenodd; fill:#000000"/>
    <path d="M 210.124 137.124L 209.983 134.233L 209.784 131.346L 209.472 128.541L 208.991 125.819L 208.339 123.073L 207.604 120.413L 206.753 117.834L 205.737 115.229L 204.659 112.651L 203.44 110.272L 202.14 107.838L 200.722 105.6L 199.194 103.303L 197.55 101.069L 195.823 99.0534L 194.011 97.0454L 189.847 100.924L 191.491 102.795L 193.077 104.663L 194.604 106.616L 195.964 108.627L 197.269 110.694L 198.401 112.877L 199.476 115.084L 200.554 117.409L 201.433 119.702L 202.14 121.995L 202.878 124.518L 203.386 126.983L 203.866 129.416L 204.151 131.94L 204.378 134.514L 204.378 137.12L 210.128 137.12" style="stroke:none; fill-rule:evenodd; fill:#000000"/>
    <path d="M 194.944 176.092L 196.671 174.084L 198.257 172.073L 199.843 169.975L 201.343 167.764L 202.589 165.444L 203.866 163.151L 205.026 160.858L 206.101 158.393L 206.98 155.815L 207.745 153.295L 208.48 150.717L 209.046 148.053L 209.472 145.307L 209.784 142.647L 209.983 139.928L 210.124 137.124L 204.374 137.124L 204.374 139.643L 204.147 142.081L 203.866 144.6L 203.44 147.038L 203.015 149.416L 202.28 151.709L 201.655 154.088L 200.776 156.241L 199.843 158.393L 198.851 160.573L 197.69 162.725L 196.472 164.737L 195.253 166.69L 193.808 168.616L 192.366 170.487L 190.78 172.213L 194.944 176.092" style="stroke:none; fill-rule:evenodd; fill:#000000"/>
    <path d="M 93.8904 137.124L 94.0304 139.983L 94.2304 142.874L 94.5424 145.674L 95.0224 148.393L 95.6754 151.143L 96.4094 153.803L 97.2614 156.381L 98.2804 158.987L 99.3584 161.506L 100.573 163.944L 101.878 166.323L 103.323 168.62L 104.823 170.854L 106.468 173.006L 108.194 175.159L 110.007 177.116L 114.171 173.233L 112.526 171.42L 110.94 169.549L 109.413 167.541L 108.054 165.584L 106.749 163.432L 105.616 161.366L 104.542 159.045L 103.464 156.834L 102.589 154.514L 101.878 152.217L 101.144 149.698L 100.663 147.26L 100.151 144.799L 99.8704 142.307L 99.6444 139.702L 99.6444 137.124L 93.8944 137.124" style="stroke:none; fill-rule:evenodd; fill:#000000"/>
    <path d="M 110.995 96.0304L 109.069 98.0384L 107.257 100.221L 105.472 102.428L 103.886 104.666L 102.358 106.959L 100.94 109.483L 99.6404 112.002L 98.5624 114.608L 97.4874 117.182L 96.6084 119.846L 95.7574 122.651L 95.1084 125.456L 94.5974 128.342L 94.2304 131.206L 94.0304 134.151L 93.8904 137.124L 99.6404 137.124L 99.6404 134.459L 99.8664 131.799L 100.206 129.194L 100.718 126.616L 101.226 124.096L 101.937 121.577L 102.812 119.198L 103.745 116.76L 104.823 114.467L 105.956 112.229L 107.257 109.995L 108.62 107.838L 110.062 105.745L 111.593 103.819L 113.233 101.948L 115.046 100.081L 110.995 96.0304" style="stroke:none; fill-rule:evenodd; fill:#000000"/>
    <path d="M 234.171 137.124L 234.171 135.112L 234.026 133.014L 233.858 131.006L 233.718 128.995L 233.519 126.983L 233.233 125.03L 232.925 123.077L 232.581 121.065L 232.073 119.139L 231.647 117.268L 231.14 115.401L 230.628 113.53L 229.976 111.631L 229.409 109.764L 228.761 107.979L 227.968 106.112L 227.261 104.299L 226.468 102.569L 225.589 100.87L 224.737 99.0574L 223.804 97.4714L 222.866 95.7414L 221.847 94.1004L 220.858 92.5144L 219.698 90.8424L 218.62 89.3424L 217.46 87.7564L 216.327 86.2564L 215.163 84.8114L 213.948 83.3704L 212.644 81.8664L 211.339 80.5064L 207.179 84.3854L 208.48 85.7484L 209.64 86.9634L 210.718 88.4094L 211.851 89.8544L 213.011 91.2134L 214.003 92.6594L 215.108 94.1594L 216.097 95.5454L 216.976 97.1044L 217.968 98.6354L 218.901 100.221L 219.694 101.807L 220.573 103.307L 221.28 105.034L 222.073 106.62L 222.784 108.264L 223.433 109.991L 224.085 111.635L 224.651 113.362L 225.163 115.088L 225.671 116.815L 226.179 118.686L 226.604 120.413L 226.972 122.225L 227.315 123.952L 227.628 125.881L 227.909 127.694L 228.108 129.561L 228.249 131.428L 228.39 133.299L 228.39 137.124L 234.167 137.124" style="stroke:none; fill-rule:evenodd; fill:#000000"/>
    <path d="M 209.983 195.096L 211.343 193.655L 212.644 192.295L 214.007 190.764L 215.253 189.264L 216.526 187.678L 217.772 186.092L 218.847 184.592L 220.065 182.948L 221.058 181.276L 222.077 179.631L 223.151 177.963L 224.171 176.178L 225.022 174.452L 225.901 172.721L 226.835 170.909L 227.628 168.983L 228.39 167.116L 229.046 165.299L 229.78 163.432L 230.433 161.506L 230.995 159.549L 231.507 157.541L 231.933 155.53L 232.358 153.573L 232.866 151.565L 233.151 149.553L 233.433 147.541L 233.659 145.448L 233.858 143.377L 234.03 141.284L 234.171 139.186L 234.171 137.12L 228.39 137.12L 228.39 140.998L 228.253 142.924L 228.054 144.877L 227.827 146.834L 227.542 148.702L 227.261 150.573L 226.89 152.44L 226.468 154.366L 226.042 156.237L 225.534 157.963L 224.968 159.776L 224.456 161.561L 223.722 163.288L 223.069 165.1L 222.448 166.831L 221.655 168.471L 220.862 170.116L 219.983 171.842L 219.132 173.428L 218.253 175.1L 217.319 176.6L 216.327 178.245L 215.308 179.772L 214.233 181.276L 213.155 182.776L 212.077 184.221L 210.917 185.663L 209.698 187.022L 208.483 188.413L 207.179 189.772L 205.96 191.077L 209.983 195.096" style="stroke:none; fill-rule:evenodd; fill:#000000"/>
    <path d="M 69.8434 137.124L 69.8434 139.19L 70.0154 141.288L 70.1554 143.381L 70.3544 145.452L 70.5814 147.545L 70.8624 149.557L 71.1474 151.569L 71.6554 153.577L 72.0814 155.534L 72.5074 157.545L 73.0154 159.553L 73.6124 161.51L 74.2334 163.436L 74.9724 165.303L 75.6204 167.116L 76.4134 168.987L 77.2064 170.913L 78.1444 172.725L 78.9914 174.452L 79.8434 176.178L 80.8624 177.963L 81.9404 179.635L 82.9604 181.28L 83.9484 182.952L 85.1674 184.592L 86.2724 186.092L 87.4914 187.678L 88.7654 189.264L 90.0114 190.768L 91.3704 192.295L 92.6714 193.655L 94.0344 195.1L 98.0544 191.081L 96.8354 189.776L 95.5344 188.416L 94.3154 187.026L 93.0974 185.666L 91.9374 184.225L 90.8584 182.78L 89.7844 181.28L 88.7064 179.776L 87.6904 178.248L 86.6984 176.604L 85.7654 175.104L 84.8864 173.432L 84.0344 171.846L 83.1554 170.12L 82.3624 168.475L 81.5694 166.834L 80.9484 165.104L 80.2964 163.291L 79.5624 161.565L 79.0774 159.78L 78.4834 157.967L 77.9764 156.241L 77.5504 154.37L 77.1244 152.444L 76.7574 150.577L 76.4724 148.706L 76.1904 146.838L 75.9644 144.881L 75.7654 142.928L 75.6244 141.002L 75.6244 137.124L 69.8474 137.124" style="stroke:none; fill-rule:evenodd; fill:#000000"/>
    <path d="M 94.0304 79.0654L 92.6714 80.5064L 91.2844 81.9524L 90.0114 83.4524L 88.7654 84.8974L 87.4874 86.4834L 86.2724 88.0414L 85.1084 89.6274L 83.9484 91.2134L 82.8744 92.9404L 81.7964 94.6124L 80.8624 96.3074L 79.8434 97.9794L 78.9094 99.7644L 78.0584 101.577L 77.2104 103.362L 76.4174 105.229L 75.6244 107.041L 74.8864 108.913L 74.2374 110.866L 73.6124 112.737L 73.0194 114.663L 72.5074 116.616L 72.0264 118.682L 71.5734 120.635L 71.1474 122.647L 70.8664 124.659L 70.5814 126.67L 70.3544 128.764L 70.1554 130.862L 70.0154 132.928L 69.8474 135.026L 69.8474 137.12L 75.6244 137.12L 75.6244 133.213L 75.7654 131.288L 75.9644 129.334L 76.1904 127.409L 76.4724 125.538L 76.7574 123.67L 77.2104 121.799L 77.4914 119.846L 77.9764 118.061L 78.4834 116.248L 79.0814 114.463L 79.5624 112.596L 80.2144 110.924L 80.9484 109.198L 81.5694 107.413L 82.3664 105.686L 83.1044 104.014L 83.9524 102.374L 84.8864 100.702L 85.7654 99.0574L 86.6984 97.4714L 87.6324 95.9714L 88.7104 94.3854L 89.6984 92.9404L 90.8624 91.3544L 91.9374 89.9094L 93.0974 88.4914L 94.3154 87.0494L 95.4764 85.6904L 96.6944 84.3854L 98.0544 83.0844L 94.0344 79.0654" style="stroke:none; fill-rule:evenodd; fill:#000000"/>
    <path d="M 29.6204 265.393L 2.62042 265.393" style="stroke:#000000; stroke-width:0.5; fill:none"/>
    <path d="M 38.6204 274.393L 38.6204 301.393" style="stroke:#000000; stroke-width:0.5; fill:none"/>
    <path d="M 29.6204 38.6204L 2.62042 38.6204" style="stroke:#000000; stroke-width:0.5; fill:none"/>
    <path d="M 38.6204 29.6204L 38.6204 2.62042" style="stroke:#000000; stroke-width:0.5; fill:none"/>
    <path d="M 274.394 38.6204L 301.394 38.6204" style="stroke:#000000; stroke-width:0.5; fill:none"/>
    <path d="M 265.394 29.6204L 265.394 2.62042" style="stroke:#000000; stroke-width:0.5; fill:none"/>
    <path d="M 274.394 265.393L 301.394 265.393" style="stroke:#000000; stroke-width:0.5; fill:none"/>
    <path d="M 265.394 274.393L 265.394 301.393" style="stroke:#000000; stroke-width:0.5; fill:none"/>
  </g>
</svg>

<svg viewBox="0 0 304.01 304.01"><g transform="matrix(1.35328 0 0 1.35328-53.21-52.19)" fill-rule="evenodd"><path d="m152.01 147.04l2.01-.2 1.867-.593 1.672-.938 1.5-1.219 1.16-1.445.937-1.641.567-1.871.226-2.01-.226-2.01-.567-1.899-.937-1.644-1.16-1.5-1.5-1.16-1.672-.938-1.867-.562-2.01-.231-2.01.231-1.867.562-1.672.938-1.418 1.16-1.246 1.5-.934 1.644-.566 1.899-.199 2.01.199 2.01.566 1.871.934 1.641 1.246 1.445 1.418 1.219 1.672.938 1.867.593 2.01.2"/><path d="m144.67 164.03h16.965l16.996 60.922h-52.37l18.406-60.922"/><path d="m186.02 137.12l-.144-1.731-.055-1.727-.226-1.726-.285-1.672-.426-1.586-.367-1.558-.567-1.668-.652-1.586-.653-1.446-.707-1.5-.878-1.445-.848-1.359-1.02-1.36-.992-1.304-1.105-1.215-1.133-1.219-4.02 4.02.989.934.793 1.074 1.019 1.164.711 1.074.707 1.219.738 1.16.563 1.219.652 1.305.512 1.273.422 1.219.371 1.301.281 1.445.285 1.359.227 1.446.055 1.445v1.442h5.75"/><path d="m175.97 161.14l1.078-1.219 1.074-1.214 1.02-1.247.992-1.359.933-1.359.793-1.446.735-1.445.765-1.586.508-1.558.512-1.528.512-1.586.425-1.644.282-1.645.226-1.726.059-1.727.14-1.73h-5.75v1.418l-.054 1.445-.231 1.441-.281 1.364-.281 1.386-.371 1.274-.508 1.386-.512 1.278-.48 1.156-.735 1.305-.652 1.133-.766 1.218-.738 1.106-.848 1.078-.933 1.074-.938.934 4.02 4.02"/><path d="m117.99 137.12l.145 1.785.14 1.867.2 1.812.367 1.786.426 1.671.507 1.727.567 1.726.734 1.641.793 1.586.852 1.445.879 1.418.992 1.446 1.019 1.441 1.219 1.359 1.16 1.219 1.219 1.16 3.879-4.164-1.074-1.019-1.024-1.074-.933-1.079-.848-1.16-.879-1.133-.707-1.3-.711-1.305-.648-1.273-.598-1.387-.566-1.278-.368-1.445-.425-1.527-.196-1.36-.226-1.5-.145-1.585v-1.504h-5.75"/><path d="m128.05 113.02l-1.133 1.219-1.078 1.215-1.02 1.304-1.019 1.36-.848 1.359-.883 1.441-.703 1.504-.652 1.442-.652 1.586-.567 1.672-.367 1.558-.426 1.586-.281 1.672-.227 1.726-.058 1.727-.141 1.727h5.75v-1.442l.055-1.445.226-1.442.286-1.363.281-1.441.367-1.305.426-1.219.512-1.273.652-1.305.562-1.219.739-1.16.707-1.218.707-1.075 1.019-1.16.793-1.078.992-.934-4.02-4.02"/><path d="m210.12 137.12l-.141-2.891-.199-2.887-.312-2.805-.481-2.722-.652-2.746-.735-2.66-.851-2.579-1.016-2.605-1.078-2.578-1.219-2.379-1.3-2.434-1.418-2.238-1.528-2.297-1.644-2.234-1.727-2.02-1.812-2.01-4.164 3.879 1.644 1.871 1.586 1.868 1.527 1.953 1.36 2.01 1.305 2.067 1.132 2.183 1.075 2.207 1.078 2.325.879 2.293.707 2.293.738 2.523.508 2.465.48 2.433.285 2.524.227 2.574v2.606h5.75"/><path d="m194.94 176.09l1.727-2.01 1.586-2.01 1.586-2.098 1.5-2.211 1.246-2.32 1.277-2.293 1.16-2.293 1.075-2.465.879-2.578.765-2.52.735-2.578.566-2.664.426-2.746.312-2.66.199-2.719.141-2.804h-5.75v2.519l-.227 2.438-.281 2.519-.426 2.438-.425 2.378-.735 2.293-.625 2.379-.879 2.153-.933 2.152-.992 2.18-1.161 2.152-1.218 2.01-1.219 1.953-1.445 1.926-1.442 1.871-1.586 1.726 4.164 3.879"/><path d="m93.89 137.12l.14 2.859.2 2.891.312 2.8.48 2.719.653 2.75.734 2.66.852 2.578 1.019 2.606 1.078 2.519 1.215 2.438 1.305 2.379 1.445 2.297 1.5 2.234 1.645 2.152 1.726 2.153 1.813 1.957 4.164-3.883-1.645-1.813-1.586-1.871-1.527-2.01-1.359-1.957-1.305-2.152-1.133-2.066-1.074-2.321-1.078-2.211-.875-2.32-.711-2.297-.734-2.519-.481-2.438-.512-2.461-.281-2.492-.226-2.605v-2.578h-5.75"/><path d="m111 96.03l-1.926 2.01-1.812 2.183-1.785 2.207-1.586 2.238-1.528 2.293-1.418 2.524-1.3 2.519-1.078 2.606-1.075 2.574-.879 2.664-.851 2.805-.649 2.805-.511 2.886-.367 2.864-.2 2.945-.14 2.973h5.75v-2.665l.226-2.66.34-2.605.512-2.578.508-2.52.711-2.519.875-2.379.933-2.438 1.078-2.293 1.133-2.238 1.301-2.234 1.363-2.157 1.442-2.093 1.531-1.926 1.64-1.871 1.813-1.867-4.051-4.051"/><path d="m234.17 137.12v-2.01l-.145-2.098-.168-2.01-.14-2.01-.199-2.01-.286-1.953-.308-1.953-.344-2.01-.508-1.926-.426-1.871-.507-1.867-.512-1.871-.652-1.899-.567-1.867-.648-1.785-.793-1.867-.707-1.813-.793-1.73-.879-1.699-.852-1.813-.933-1.586-.938-1.73-1.019-1.641-.989-1.586-1.16-1.672-1.078-1.5-1.16-1.586-1.133-1.5-1.164-1.445-1.215-1.441-1.304-1.504-1.305-1.36-4.16 3.879 1.301 1.363 1.16 1.215 1.078 1.446 1.133 1.445 1.16 1.359.992 1.446 1.105 1.5.989 1.386.879 1.559.992 1.531.933 1.586.793 1.586.879 1.5.707 1.727.793 1.586.711 1.644.649 1.727.652 1.644.566 1.727.512 1.726.508 1.727.508 1.871.425 1.727.368 1.812.343 1.727.313 1.929.281 1.813.199 1.867.141 1.867.141 1.871v3.825h5.777"/><path d="m209.98 195.1l1.36-1.441 1.301-1.36 1.363-1.531 1.246-1.5 1.273-1.586 1.246-1.586 1.075-1.5 1.218-1.644.993-1.672 1.019-1.645 1.074-1.668 1.02-1.785.851-1.726.879-1.731.934-1.812.793-1.926.762-1.867.656-1.817.734-1.867.653-1.926.562-1.957.512-2.01.426-2.01.425-1.957.508-2.01.285-2.01.282-2.01.226-2.093.199-2.071.172-2.093.141-2.098v-2.066h-5.781v3.878l-.137 1.926-.199 1.953-.227 1.957-.285 1.868-.281 1.871-.371 1.867-.422 1.926-.426 1.871-.508 1.726-.566 1.813-.512 1.785-.734 1.727-.653 1.812-.621 1.731-.793 1.64-.793 1.645-.879 1.726-.851 1.586-.879 1.672-.934 1.5-.992 1.645-1.019 1.527-1.075 1.504-1.078 1.5-1.078 1.445-1.16 1.442-1.219 1.359-1.215 1.391-1.304 1.359-1.219 1.305 4.02 4.02"/><path d="m69.843 137.12v2.066l.172 2.098.14 2.093.199 2.071.227 2.093.281 2.01.285 2.01.508 2.01.426 1.957.426 2.01.508 2.01.597 1.957.621 1.926.739 1.867.648 1.813.793 1.871.793 1.926.938 1.812.847 1.727.852 1.726 1.019 1.785 1.078 1.672 1.02 1.645.988 1.672 1.219 1.64 1.105 1.5 1.219 1.586 1.274 1.586 1.246 1.504 1.359 1.527 1.301 1.36 1.363 1.445 4.02-4.02-1.219-1.305-1.301-1.36-1.219-1.39-1.218-1.36-1.16-1.441-1.079-1.445-1.074-1.5-1.078-1.504-1.016-1.528-.992-1.644-.933-1.5-.879-1.672-.852-1.586-.879-1.726-.793-1.645-.793-1.641-.621-1.73-.652-1.813-.734-1.726-.485-1.785-.594-1.813-.507-1.726-.426-1.871-.426-1.926-.367-1.867-.285-1.871-.282-1.868-.226-1.957-.199-1.953-.141-1.926v-3.878h-5.777"/><path d="m94.03 79.07l-1.359 1.441-1.387 1.446-1.273 1.5-1.246 1.445-1.278 1.586-1.215 1.558-1.164 1.586-1.16 1.586-1.074 1.727-1.078 1.672-.934 1.695-1.019 1.672-.934 1.785-.851 1.813-.848 1.785-.793 1.867-.793 1.812-.738 1.872-.649 1.953-.625 1.871-.593 1.926-.512 1.953-.481 2.066-.453 1.953-.426 2.01-.281 2.01-.285 2.01-.227 2.094-.199 2.098-.14 2.066-.168 2.098v2.094h5.777v-3.907l.141-1.925.199-1.954.226-1.925.282-1.871.285-1.868.453-1.871.281-1.953.485-1.785.507-1.813.598-1.785.481-1.867.652-1.672.734-1.726.621-1.785.797-1.727.738-1.672.848-1.64.934-1.672.879-1.645.933-1.586.934-1.5 1.078-1.586.988-1.445 1.164-1.586 1.075-1.445 1.16-1.418 1.218-1.442 1.161-1.359 1.218-1.305 1.36-1.301-4.02-4.02"/></g></svg>
